icons/milestone-24.svg

<svg xmlns="http://www.w3.org/2000/svg" width="24" height="24" viewBox="0 0 24 24"><path fill-rule="evenodd" d="M11.75 1a.75.75 0 01.75.75V4h6.532c.42 0 .826.15 1.143.425l3.187 2.75a1.75 1.75 0 010 2.65l-3.187 2.75a1.75 1.75 0 01-1.143.425H12.5v9.25a.75.75 0 01-1.5 0V13H3.75A1.75 1.75 0 012 11.25v-5.5C2 4.783 2.784 4 3.75 4H11V1.75a.75.75 0 01.75-.75zm0 4.5h7.282a.25.25 0 01.163.06l3.188 2.75a.25.25 0 010 .38l-3.188 2.75a.25.25 0 01-.163.06H3.75a.25.25 0 01-.25-.25v-5.5a.25.25 0 01.25-.25h8z"/></svg>

<svg xmlns="http://www.w3.org/2000/svg" width="24" height="24" viewBox="0 0 24 24">
  <defs/>
  <path d="M11.75,1 C12.164,1 12.5,1.336 12.5,1.75 L12.5,4 L19.032,4 C19.452,4 19.858,4.15 20.175,4.425 L23.362,7.175 C23.747,7.507 23.969,7.991 23.969,8.5 C23.969,9.009 23.747,9.493 23.362,9.825 L20.175,12.575 C19.857,12.849 19.452,13 19.032,13 L12.5,13 L12.5,22.25 C12.5,22.664 12.164,23 11.75,23 C11.336,23 11,22.664 11,22.25 L11,13 L3.75,13 C2.784,13 2,12.216 2,11.25 L2,5.75 C2,4.783 2.784,4 3.75,4 L11,4 L11,1.75 C11,1.336 11.336,1 11.75,1 Z M19.032,5.5 L3.75,5.5 C3.612,5.5 3.5,5.612 3.5,5.75 L3.5,11.25 C3.5,11.388 3.612,11.5 3.75,11.5 L19.032,11.5 C19.092,11.5 19.15,11.479 19.195,11.44 L22.383,8.69 C22.439,8.643 22.471,8.573 22.471,8.5 C22.471,8.427 22.439,8.357 22.383,8.31 L19.195,5.56 C19.15,5.521 19.092,5.5 19.032,5.5 Z"/>
</svg>
